public/formular-icons/numbers/6.svg

<svg style="vertical-align:-.05ex" xmlns="http://www.w3.org/2000/svg" width="1.131ex" height="1.557ex" viewBox="0 -666 500 688" xmlns:xlink="http://www.w3.org/1999/xlink"><defs><path id="a" d="M42 313q0 163 81 258t180 95q69 0 99-36t30-80q0-25-14-40t-39-15q-23 0-38 14t-15 39q0 44 47 53-22 22-62 25-71 0-117-60-47-66-47-202l1-4q5 6 8 13 41 60 107 60h4q46 0 81-19 24-14 48-40t39-57q21-49 21-107v-18q0-23-5-43-11-59-64-115T253-22q-28 0-54 8t-56 30-51 59-36 97-14 141Zm215 84q-30 0-52-17t-34-45-17-57-6-62q0-83 12-119t38-58q24-18 53-18 51 0 78 38 13 18 18 45t5 105q0 80-5 107t-18 45q-27 36-72 36Z"/></defs><g stroke="currentColor" fill="currentColor" stroke-width="0"><use data-c="36" xlink:href="#a" transform="scale(1 -1)"/></g></svg>

<svg style="vertical-align: -0.05ex" xmlns="http://www.w3.org/2000/svg" width="1.131ex" height="1.557ex" role="img" focusable="false" viewBox="0 -666 500 688" xmlns:xlink="http://www.w3.org/1999/xlink"><defs><path id="MJX-28-TEX-N-36" d="M42 313Q42 476 123 571T303 666Q372 666 402 630T432 550Q432 525 418 510T379 495Q356 495 341 509T326 548Q326 592 373 601Q351 623 311 626Q240 626 194 566Q147 500 147 364L148 360Q153 366 156 373Q197 433 263 433H267Q313 433 348 414Q372 400 396 374T435 317Q456 268 456 210V192Q456 169 451 149Q440 90 387 34T253 -22Q225 -22 199 -14T143 16T92 75T56 172T42 313ZM257 397Q227 397 205 380T171 335T154 278T148 216Q148 133 160 97T198 39Q222 21 251 21Q302 21 329 59Q342 77 347 104T352 209Q352 289 347 316T329 361Q302 397 257 397Z"></path></defs><g stroke="currentColor" fill="currentColor" stroke-width="0" transform="scale(1,-1)"><g data-mml-node="math"><g data-mml-node="mn"><use data-c="36" xlink:href="#MJX-28-TEX-N-36"></use></g></g></g></svg>
